svgs/files_by_google.svg

<svg width="192" height="192" viewBox="0 0 192 192" fill="none" xmlns="http://www.w3.org/2000/svg"><path d="m96 38-4.243-4.243A6 6 0 0 1 96 32v6ZM30 148h132v12H30v-12Zm134-2V46h12v100h-12Zm-2-102H96V32h66v12Zm-61.757-1.757-16 16-8.486-8.486 16-16 8.486 8.486ZM80 60H30V48h50v12Zm-52 2v50H16V62h12Zm0 50v34H16v-34h12Zm56.243-53.757-58 58-8.486-8.486 58-58 8.486 8.486ZM22 106h66v12H22v-12Zm68-2V38h12v66H90Zm-2 2a2 2 0 0 0 2-2h12c0 7.732-6.268 14-14 14v-12Zm74 42a2 2 0 0 0 2-2h12c0 7.732-6.268 14-14 14v-12ZM30 160c-7.732 0-14-6.268-14-14h12a2 2 0 0 0 2 2v12Zm0-100a2 2 0 0 0-2 2H16c0-7.732 6.268-14 14-14v12Zm134-14a2 2 0 0 0-2-2V32c7.732 0 14 6.268 14 14h-12Z" fill="#000"/></svg>

<svg id="vector" xmlns="http://www.w3.org/2000/svg" width="192" height="192" viewBox="0 0 192 192"><path fill="#000000" d="M96,38L91.757,33.757C92.883,32.632 94.409,32 96,32V38ZM30,148H162V160H30V148ZM164,146V46H176V146H164ZM162,44H96V32H162V44ZM100.243,42.243L84.243,58.243L75.757,49.757L91.757,33.757L100.243,42.243ZM80,60H30V48H80V60ZM28,62V112H16V62H28ZM28,112V146H16V112H28ZM84.243,58.243L26.243,116.243L17.757,107.757L75.757,49.757L84.243,58.243ZM22,106H88V118H22V106ZM90,104V38H102V104H90ZM88,106C89.105,106 90,105.105 90,104H102C102,111.732 95.732,118 88,118V106ZM162,148C163.105,148 164,147.105 164,146H176C176,153.732 169.732,160 162,160V148ZM30,160C22.268,160 16,153.732 16,146H28C28,147.105 28.895,148 30,148V160ZM30,60C28.895,60 28,60.895 28,62H16C16,54.268 22.268,48 30,48V60ZM164,46C164,44.895 163.105,44 162,44V32C169.732,32 176,38.268 176,46H164Z" id="path_0"/></svg>
